packages/usa-icon/src/img/material-icons/qr_code_2.svg

<svg xmlns="http://www.w3.org/2000/svg" height="24" viewBox="0 0 24 24" width="24"><path fill="none" d="M0 0h24v24H0z"/><path d="M15 21h-2v-2h2v2zm-2-7h-2v5h2v-5zm8-2h-2v4h2v-4zm-2-2h-2v2h2v-2zM7 12H5v2h2v-2zm-2-2H3v2h2v-2zm7-5h2V3h-2v2zm-7.5-.5v3h3v-3h-3zM9 9H3V3h6v6zm-4.5 7.5v3h3v-3h-3zM9 21H3v-6h6v6zm7.5-16.5v3h3v-3h-3zM21 9h-6V3h6v6zm-2 10v-3h-4v2h2v3h4v-2h-2zm-2-7h-4v2h4v-2zm-4-2H7v2h2v2h2v-2h2v-2zm1-1V7h-2V5h-2v4h4zM6.75 5.25h-1.5v1.5h1.5v-1.5zm0 12h-1.5v1.5h1.5v-1.5zm12-12h-1.5v1.5h1.5v-1.5z"/></svg>

<svg xmlns="http://www.w3.org/2000/svg" enable-background="new 0 0 24 24" height="24" viewBox="0 0 24 24" width="24"><g><rect fill="none" height="24" width="24"/></g><path d="M15,21h-2v-2h2V21z M13,14h-2v5h2V14z M21,12h-2v4h2V12z M19,10h-2v2h2V10z M7,12H5v2h2V12z M5,10H3v2h2V10z M12,5h2V3h-2V5 z M4.5,4.5v3h3v-3H4.5z M9,9H3V3h6V9z M4.5,16.5v3h3v-3H4.5z M9,21H3v-6h6V21z M16.5,4.5v3h3v-3H16.5z M21,9h-6V3h6V9z M19,19v-3 l-4,0v2h2v3h4v-2H19z M17,12l-4,0v2h4V12z M13,10H7v2h2v2h2v-2h2V10z M14,9V7h-2V5h-2v4L14,9z M6.75,5.25h-1.5v1.5h1.5V5.25z M6.75,17.25h-1.5v1.5h1.5V17.25z M18.75,5.25h-1.5v1.5h1.5V5.25z"/></svg>
